X:1
T:Title
T:Op. 73: Etude No. 17 in C Minor 
T:David Popper
C:Composer
%%score 1 2
L:1/8
Q:1/4=71
M:4/4
K:Eb
V:1 treble nm="Piano" snm="Pno."
V:2 bass nm="Violoncello"
V:1
"^Adagio" z z z2 z4 | z8 | z8 | z8 | z8 | z8 |[Q:1/4=71]"^tempo" z8 | z8 | z8 | z8 || %10
[K:C][Q:1/4=94]"^Andante quasi Adagio" z8 | z8 | z8 | z8 | z8 | z8 | z8 | z8 | z8 | z8 || %20
[K:Eb][Q:1/4=94]"^Con Brio\n" z8 | z8 | z8 | z8 | z8 | z8 | z8 | z8 | z8 | z8 |] %30
V:2
!f! C,,(E,/F,/ !>!G,2) C,,(E,/F,/ !>!G,2) | %1
 C,,(E,/F,/ G,/_A,/=A,/B,/ C/)(B,/=A,/B,/ _A,/)(G,/F,/G,/) | F,,(A,/B,/ !>!C2) F,,(A,/B,/ !>!C2) | %3
 F,,(C/B,/ A,/G,/F,/E,/) ([G,,D,]/E,/=E,/F,/ G,/)(F,/_E,/D,/) | %4
 C,,(E,/F,/ !>!G,2) C,,(E,/F,/ !>!G,2) | %5
 C,,"_cresc."(=E,/F,/ G,/A,/B,/=B,/) C"_rit.\n"_D/D/ (C/_B,/)_A,/G,/ | %6
!f! F,,(A,/B,/ !>!C2) =D,,(F,/G,/ !>!A,2) | E,,(G,/A,/ !>!B,2) C,,(E,/F,/ !>!G,2) | %8
 F,,(F,/G,/ !>!A,2) G,,(D,/E,/ !>!F,2) | %9
 [C,,G,,E,]/(E,/=B,/)(=B,/ E,/)(E,/G,,/).G,,/ !fermata!C,,3 z || %10
[K:C][K:bass]"_dolce" (CB,A,B, C)(B,A,G, | F,)(E,"^pizz."[G,,D,])G, E,!plus!G,,!plus!C,, z | %12
"^arco" (F,E,D,B, C)(^G,A,E, | F,)(C,A,,C,,) F,,3 z | (D,,D,^F,A,) (D^F) z"^pizz." G,, | %15
"^arco" (C,,C,E,G,) (CE) F2 | (FED)F (GFE)G | (AGF)G!>(! (A"_rall."F,) G,2!>)! | %18
!p! (CB,A,B, C)B,A,G, | F,"_pizz."E,G,,G, !fermata!E,!plus!G,,!plus!C,, z || %20
[K:Eb]!f!"^arco" C,,(E,/F,/ !>!G,2) C,,(E,/F,/ !>!G,2) | %21
 C,,(E,/F,/ G,/_A,/=A,/B,/ C/)(B,/=A,/B,/ _A,/)(G,/F,/G,/) | F,,(A,/B,/ !>!C2) F,,(A,/B,/ !>!C2) | %23
 F,,(C/B,/ A,/G,/F,/E,/) ([G,,D,]/E,/=E,/F,/ G,/)(F,/_E,/D,/) | %24
 C,,(E,/F,/ !>!G,2) C,,(E,/F,/ !>!G,2) | %25
 C,,"_cresc."(=E,/F,/ G,/A,/B,/=B,/) C"_rit.\n"_D/D/ (C/_B,/)_A,/G,/ | %26
!f! F,,(A,/B,/ !>!C2) =D,,(F,/G,/ !>!A,2) | E,,(G,/A,/ !>!B,2) C,,(E,/F,/ !>!G,2) | %28
 F,,(F,/G,/ !>!A,2) G,,(D,/E,/ !>!F,2) | %29
 [C,,G,,E,]/(E,/=B,/)(=B,/ E,/)(E,/G,,/).G,,/ !fermata!C,,3 z |] %30

